X: 32987
T: Pretty Girls Of Mayo, The
R: reel
M: 4/4
K: Gmajor
|:DGGB A2de|fdde fdcA|DGGB A2de|1 fdcA BGG2:|2 fdcA BGBd||
g2ge fdde|fdge fdd2|g2ge fdde|fdcA BGBd|
g2ge fdde|fgag fdcA|defg abag|fdcA BGG2||

